X: 1686
T: The Pride of the Parish
M:4/4
L:1/8
B:O'Neill's 1686
N:"collected by F.O'Neill"
K:G
G-A \
| B>AGE DEGA | ~B-AGBA2 G-A | B>AGE DEGA | BGAF G2G-A |
| B>AGE DEGA | ~B-AGB A2GA | Bdde dBGB | AGEF G2 :|
|: G-A \
| B>cde dBAG | (3ABc de d2B-A | B.cde dBGB | AGEF G2G-A |
| B>cde dBAG | (3ABc ded2 (3def | g>ag>e d>BGB | AGEF G2 :|


